src/img/logo.svg

<svg width="247" height="22" viewBox="0 0 247 22" fill="none" xmlns="http://www.w3.org/2000/svg">
<path d="M197.496 9.632V21H192.904V1.12H196.544L205.756 12.824V1.12H210.348V21H206.596L197.496 9.632Z" fill="#42A9ED"/>
<path d="M228.122 16.968V21H214.15V1.12H227.87V5.15199H218.742V9.016H226.582V12.74H218.742V16.968H228.122Z" fill="#42A9ED"/>
<path d="M246.06 5.15199H240.012V21H235.42V5.15199H229.344V1.12H246.06V5.15199Z" fill="#42A9ED"/>
<path d="M0.903992 21V1.12H5.49599V16.968H15.128V21H0.903992Z" fill="white"/>
<path d="M25.6354 21.168C24.1421 21.168 22.7888 20.888 21.5754 20.328C20.3808 19.7493 19.3448 18.984 18.4674 18.032C17.6088 17.0613 16.9461 15.9787 16.4794 14.784C16.0128 13.5707 15.7794 12.32 15.7794 11.032C15.7794 9.70666 16.0221 8.44666 16.5074 7.252C17.0114 6.05733 17.7021 4.99333 18.5794 4.06C19.4754 3.108 20.5301 2.36133 21.7434 1.81999C22.9568 1.27866 24.2821 1.00799 25.7194 1.00799C27.1941 1.00799 28.5288 1.29733 29.7234 1.876C30.9368 2.436 31.9728 3.20133 32.8314 4.172C33.7088 5.14266 34.3808 6.23466 34.8474 7.448C35.3141 8.64266 35.5474 9.86533 35.5474 11.116C35.5474 12.4413 35.3048 13.7013 34.8194 14.896C34.3341 16.0907 33.6434 17.164 32.7474 18.116C31.8514 19.0493 30.7968 19.796 29.5834 20.356C28.3888 20.8973 27.0728 21.168 25.6354 21.168ZM20.4554 11.088C20.4554 11.8533 20.5674 12.6 20.7914 13.328C21.0154 14.0373 21.3421 14.672 21.7714 15.232C22.2194 15.792 22.7701 16.24 23.4234 16.576C24.0768 16.912 24.8234 17.08 25.6634 17.08C26.5408 17.08 27.3061 16.912 27.9594 16.576C28.6128 16.2213 29.1541 15.7547 29.5834 15.176C30.0128 14.5973 30.3301 13.9533 30.5354 13.244C30.7594 12.516 30.8714 11.7787 30.8714 11.032C30.8714 10.2667 30.7594 9.52933 30.5354 8.81999C30.3114 8.11066 29.9754 7.476 29.5274 6.916C29.0794 6.33733 28.5288 5.88933 27.8754 5.572C27.2221 5.25466 26.4848 5.096 25.6634 5.096C24.7861 5.096 24.0208 5.264 23.3674 5.6C22.7328 5.936 22.1914 6.39333 21.7434 6.97199C21.3141 7.53199 20.9874 8.176 20.7634 8.904C20.5581 9.61333 20.4554 10.3413 20.4554 11.088Z" fill="white"/>
<path d="M38.2009 21V1.12H47.1609C48.0942 1.12 48.9529 1.316 49.7369 1.708C50.5395 2.08133 51.2302 2.59466 51.8089 3.248C52.3875 3.88266 52.8355 4.60133 53.1529 5.404C53.4889 6.20666 53.6569 7.01866 53.6569 7.84C53.6569 8.66133 53.5262 9.44533 53.2649 10.192C53.0035 10.92 52.6302 11.5827 52.1449 12.18C51.6595 12.7587 51.0809 13.2347 50.4089 13.608L54.7769 21H49.7089L45.9009 14.588H42.7929V21H38.2009ZM42.7929 10.584H46.9929C47.3662 10.584 47.6929 10.472 47.9729 10.248C48.2715 10.0053 48.5142 9.67866 48.7009 9.268C48.8875 8.85733 48.9809 8.38133 48.9809 7.84C48.9809 7.29866 48.8689 6.832 48.6449 6.43999C48.4395 6.02933 48.1782 5.71199 47.8609 5.488C47.5435 5.26399 47.2075 5.15199 46.8529 5.15199H42.7929V10.584Z" fill="white"/>
<path d="M70.9307 16.968V21H56.9587V1.12H70.6787V5.15199H61.5507V9.016H69.3907V12.74H61.5507V16.968H70.9307Z" fill="white"/>
<path d="M89.4004 21V9.156L85.1164 17.78H82.5964L78.3124 9.156V21H73.7204V1.12H78.7044L83.8564 11.508L89.0364 1.12H93.9924V21H89.4004Z" fill="white"/>
<path d="M97.8102 21V1.12H102.402V21H97.8102Z" fill="white"/>
<path d="M106.205 21V1.12H114.689C115.641 1.12 116.509 1.316 117.293 1.708C118.095 2.08133 118.786 2.59466 119.365 3.248C119.943 3.88266 120.391 4.60133 120.709 5.404C121.026 6.20666 121.185 7.028 121.185 7.868C121.185 9.00666 120.914 10.0893 120.373 11.116C119.85 12.1427 119.113 12.9827 118.161 13.636C117.227 14.2707 116.117 14.588 114.829 14.588H110.797V21H106.205ZM110.797 10.584H114.549C114.903 10.584 115.23 10.4813 115.529 10.276C115.827 10.0707 116.07 9.76266 116.257 9.352C116.443 8.94133 116.537 8.43733 116.537 7.84C116.537 7.224 116.425 6.72 116.201 6.328C115.995 5.91733 115.725 5.61866 115.389 5.43199C115.071 5.24533 114.735 5.15199 114.381 5.15199H110.797V10.584Z" fill="white"/>
<path d="M135.578 6.944C135.522 6.85066 135.326 6.71066 134.99 6.524C134.654 6.31866 134.234 6.104 133.73 5.88C133.226 5.65599 132.675 5.46 132.078 5.292C131.481 5.12399 130.883 5.04 130.286 5.04C129.502 5.04 128.895 5.18 128.466 5.46C128.037 5.72133 127.822 6.132 127.822 6.692C127.822 7.14 127.981 7.49466 128.298 7.756C128.634 8.01733 129.11 8.25066 129.726 8.456C130.342 8.64266 131.098 8.86666 131.994 9.128C133.263 9.464 134.365 9.87466 135.298 10.36C136.231 10.8267 136.941 11.4333 137.426 12.18C137.93 12.9267 138.182 13.916 138.182 15.148C138.182 16.268 137.977 17.22 137.566 18.004C137.155 18.7693 136.595 19.3947 135.886 19.88C135.195 20.3467 134.402 20.692 133.506 20.916C132.61 21.1213 131.686 21.224 130.734 21.224C129.763 21.224 128.765 21.1307 127.738 20.944C126.73 20.7387 125.759 20.4587 124.826 20.104C123.893 19.7307 123.034 19.2827 122.25 18.76L124.266 14.756C124.341 14.8493 124.583 15.0267 124.994 15.288C125.405 15.5307 125.909 15.792 126.506 16.072C127.122 16.3333 127.803 16.5667 128.55 16.772C129.297 16.9773 130.053 17.08 130.818 17.08C131.639 17.08 132.246 16.9493 132.638 16.688C133.049 16.4267 133.254 16.0627 133.254 15.596C133.254 15.092 133.039 14.7 132.61 14.42C132.199 14.14 131.63 13.888 130.902 13.664C130.193 13.44 129.371 13.188 128.438 12.908C127.225 12.5347 126.217 12.1147 125.414 11.648C124.63 11.1813 124.042 10.612 123.65 9.94C123.277 9.268 123.09 8.428 123.09 7.42C123.09 6.02 123.417 4.844 124.07 3.892C124.742 2.92133 125.638 2.19333 126.758 1.708C127.878 1.204 129.101 0.951996 130.426 0.951996C131.359 0.951996 132.255 1.064 133.114 1.28799C133.991 1.51199 134.803 1.792 135.55 2.128C136.315 2.464 136.997 2.8 137.594 3.136L135.578 6.944Z" fill="white"/>
<path d="M149.417 21.168C147.83 21.168 146.477 20.9067 145.357 20.384C144.237 19.8427 143.322 19.1147 142.613 18.2C141.922 17.2667 141.409 16.212 141.073 15.036C140.755 13.8413 140.597 12.5907 140.597 11.284V1.12H145.189V11.284C145.189 12.0307 145.263 12.7587 145.413 13.468C145.562 14.1587 145.805 14.7747 146.141 15.316C146.477 15.8573 146.906 16.2867 147.429 16.604C147.97 16.9213 148.633 17.08 149.417 17.08C150.219 17.08 150.891 16.9213 151.433 16.604C151.974 16.268 152.403 15.8293 152.721 15.288C153.038 14.728 153.271 14.1027 153.421 13.412C153.57 12.7213 153.645 12.012 153.645 11.284V1.12H158.237V11.284C158.237 12.6653 158.059 13.9533 157.705 15.148C157.369 16.3427 156.846 17.3973 156.137 18.312C155.427 19.208 154.513 19.908 153.393 20.412C152.291 20.916 150.966 21.168 149.417 21.168Z" fill="white"/>
<path d="M177.475 21V9.156L173.191 17.78H170.671L166.387 9.156V21H161.795V1.12H166.779L171.931 11.508L177.111 1.12H182.067V21H177.475Z" fill="white"/>
<path d="M185.492 21V16.436H189.16V21H185.492Z" fill="white"/>
</svg>

<svg width="247" height="22" fill="none" xmlns="http://www.w3.org/2000/svg"><path d="M197.496 9.632V21h-4.592V1.12h3.64l9.212 11.704V1.12h4.592V21h-3.752l-9.1-11.368zM228.122 16.968V21H214.15V1.12h13.72v4.032h-9.128v3.864h7.84v3.724h-7.84v4.228h9.38zM246.06 5.152h-6.048V21h-4.592V5.152h-6.076V1.12h16.716v4.032z" fill="#42A9ED"/><path d="M.904 21V1.12h4.592v15.848h9.632V21H.904zM25.635 21.168c-1.493 0-2.846-.28-4.06-.84a10.275 10.275 0 01-3.108-2.296 10.798 10.798 0 01-1.988-3.248 10.368 10.368 0 01-.7-3.752c0-1.325.243-2.585.728-3.78A10.685 10.685 0 0118.58 4.06a9.758 9.758 0 013.164-2.24c1.214-.541 2.54-.812 3.976-.812 1.475 0 2.81.29 4.004.868a9.298 9.298 0 013.108 2.296c.878.97 1.55 2.063 2.016 3.276a10 10 0 01.7 3.668 9.946 9.946 0 01-.728 3.78 10.341 10.341 0 01-2.072 3.22c-.896.933-1.95 1.68-3.164 2.24-1.194.541-2.51.812-3.948.812zm-5.18-10.08c0 .765.112 1.512.336 2.24.224.71.551 1.344.98 1.904a5.04 5.04 0 001.652 1.344c.654.336 1.4.504 2.24.504.878 0 1.643-.168 2.296-.504a4.909 4.909 0 001.624-1.4c.43-.579.747-1.223.952-1.932a7.482 7.482 0 00.336-2.212c0-.765-.112-1.503-.336-2.212a5.826 5.826 0 00-1.008-1.904 4.611 4.611 0 00-1.652-1.344c-.653-.317-1.39-.476-2.212-.476-.877 0-1.642.168-2.296.504a4.984 4.984 0 00-1.624 1.372 6.084 6.084 0 00-.98 1.932 7.816 7.816 0 00-.308 2.184zM38.2 21V1.12h8.96c.934 0 1.793.196 2.577.588a6.268 6.268 0 012.072 1.54 6.987 6.987 0 011.344 2.156c.336.803.504 1.615.504 2.436s-.13 1.605-.392 2.352a6.744 6.744 0 01-1.12 1.988 6.129 6.129 0 01-1.736 1.428L54.777 21h-5.068L45.9 14.588h-3.108V21H38.2zm4.593-10.416h4.2c.373 0 .7-.112.98-.336.299-.243.541-.57.728-.98.187-.41.28-.887.28-1.428 0-.541-.112-1.008-.336-1.4-.206-.41-.467-.728-.784-.952a1.719 1.719 0 00-1.008-.336h-4.06v5.432zM70.93 16.968V21H56.96V1.12h13.72v4.032H61.55v3.864h7.84v3.724h-7.84v4.228h9.38zM89.4 21V9.156l-4.284 8.624h-2.52l-4.284-8.624V21H73.72V1.12h4.984l5.152 10.388 5.18-10.388h4.956V21H89.4zM97.81 21V1.12h4.592V21H97.81zM106.205 21V1.12h8.484c.952 0 1.82.196 2.604.588a6.277 6.277 0 012.072 1.54 7.01 7.01 0 011.344 2.156c.317.803.476 1.624.476 2.464a6.872 6.872 0 01-.812 3.248 6.696 6.696 0 01-2.212 2.52c-.934.635-2.044.952-3.332.952h-4.032V21h-4.592zm4.592-10.416h3.752c.354 0 .681-.103.98-.308.298-.205.541-.513.728-.924.186-.41.28-.915.28-1.512 0-.616-.112-1.12-.336-1.512-.206-.41-.476-.71-.812-.896a1.96 1.96 0 00-1.008-.28h-3.584v5.432zM135.578 6.944c-.056-.093-.252-.233-.588-.42a12.214 12.214 0 00-2.912-1.232 6.592 6.592 0 00-1.792-.252c-.784 0-1.391.14-1.82.42-.429.261-.644.672-.644 1.232 0 .448.159.803.476 1.064.336.261.812.495 1.428.7.616.187 1.372.41 2.268.672 1.269.336 2.371.747 3.304 1.232.933.467 1.643 1.073 2.128 1.82.504.747.756 1.736.756 2.968 0 1.12-.205 2.072-.616 2.856a5.248 5.248 0 01-1.68 1.876 7.431 7.431 0 01-2.38 1.036c-.896.205-1.82.308-2.772.308-.971 0-1.969-.093-2.996-.28a18.661 18.661 0 01-2.912-.84 14.008 14.008 0 01-2.576-1.344l2.016-4.004c.075.093.317.27.728.532.411.243.915.504 1.512.784.616.261 1.297.495 2.044.7a8.521 8.521 0 002.268.308c.821 0 1.428-.13 1.82-.392.411-.261.616-.625.616-1.092 0-.504-.215-.896-.644-1.176-.411-.28-.98-.532-1.708-.756-.709-.224-1.531-.476-2.464-.756-1.213-.373-2.221-.793-3.024-1.26-.784-.467-1.372-1.036-1.764-1.708-.373-.672-.56-1.512-.56-2.52 0-1.4.327-2.576.98-3.528.672-.97 1.568-1.699 2.688-2.184 1.12-.504 2.343-.756 3.668-.756.933 0 1.829.112 2.688.336.877.224 1.689.504 2.436.84.765.336 1.447.672 2.044 1.008l-2.016 3.808zM149.417 21.168c-1.587 0-2.94-.261-4.06-.784-1.12-.541-2.035-1.27-2.744-2.184a9.78 9.78 0 01-1.54-3.164 14.526 14.526 0 01-.476-3.752V1.12h4.592v10.164c0 .747.074 1.475.224 2.184.149.69.392 1.307.728 1.848.336.541.765.97 1.288 1.288.541.317 1.204.476 1.988.476.802 0 1.474-.159 2.016-.476.541-.336.97-.775 1.288-1.316.317-.56.55-1.185.7-1.876.149-.69.224-1.4.224-2.128V1.12h4.592v10.164c0 1.381-.178 2.67-.532 3.864-.336 1.195-.859 2.25-1.568 3.164-.71.896-1.624 1.596-2.744 2.1-1.102.504-2.427.756-3.976.756zM177.475 21V9.156l-4.284 8.624h-2.52l-4.284-8.624V21h-4.592V1.12h4.984l5.152 10.388 5.18-10.388h4.956V21h-4.592zM185.492 21v-4.564h3.668V21h-3.668z" fill="#fff"/></svg>
